images/bYFL.svg

<svg height="250" viewBox="0 0 250 250" width="250" xmlns="http://www.w3.org/2000/svg"><path d="m250 125c0 69.035156-55.964844 125-125 125s-125-55.964844-125-125 55.964844-125 125-125 125 55.964844 125 125zm0 0"/><g fill="#fff"><path d="m177.734375 51.757812-14.648437 5.078126 5.46875 16.601562-43.554688-22.460938-58.789062 32.226563v43.554687l23.632812-8.203124-.195312-21.875 35.351562-18.75 33.789062 16.40625-16.796874 6.25 5.273437 15.234374 46.679687-16.601562zm0 0"/><path d="m72.265625 198.242188 14.648437-5.078126-5.46875-16.601562 43.359376 22.460938 58.984374-32.226563v-43.554687l-23.632812 8.203124.195312 21.875-35.546874 18.75-33.59375-16.40625 16.796874-6.25-5.273437-15.234374-46.679687 16.601562zm0 0"/><path d="m129.492188 238.671875-.390626-9.960937c12.109376-.390626 23.632813-2.929688 34.765626-7.421876l3.710937 9.179688c-12.109375 4.882812-25 7.617188-38.085937 8.203125zm-38.671876-5.078125c-12.5-3.90625-24.21875-9.960938-34.570312-17.96875l6.054688-8.007812c9.570312 7.226562 20.117187 12.695312 31.640624 16.40625zm109.960938-23.632812-6.640625-7.421876c8.984375-8.007812 16.40625-17.382812 22.070313-27.929687l8.789062 4.6875c-6.25 11.523437-14.453125 21.875-24.21875 30.664063zm-171.09375-23.046876c-7.226562-10.9375-12.304688-23.046874-15.429688-35.9375l9.765626-2.34375c2.734374 11.71875 7.421874 22.65625 14.0625 32.8125zm207.8125-44.53125-9.960938-1.5625c.78125-5.273437 1.171876-10.546874 1.171876-15.820312 0-6.640625-.585938-13.28125-1.953126-19.726562l9.765626-1.953126c1.367187 7.03125 2.148437 14.453126 2.148437 21.679688 0 5.859375-.390625 11.523438-1.171875 17.382812zm-215.625-29.101562-9.960938-1.171875c1.5625-13.085937 5.078126-25.585937 10.9375-37.5l8.984376 4.492187c-5.273438 10.742188-8.59375 22.265626-9.960938 34.179688zm192.382812-41.40625c-6.054687-10.351562-13.867187-19.335938-23.242187-26.953125l6.445313-7.617187c10.15625 8.398437 18.75 18.359374 25.390624 29.6875zm-161.328124-21.484375-7.03125-7.226563c9.375-9.179687 20.3125-16.601562 32.226562-21.875l4.101562 9.179688c-10.742187 4.882812-20.703124 11.523438-29.296874 19.921875zm107.226562-23.046875c-11.132812-4.101562-23.046875-6.054688-35.15625-6.054688-2.734375 0-5.46875.195313-8.203125.390626l-.78125-9.960938c2.929687-.195312 6.054687-.390625 8.984375-.390625 13.28125 0 26.171875 2.148437 38.476562 6.640625zm0 0"/></g></svg>

<!-- Generator: Adobe Illustrator 25.1.0, SVG Export Plug-In . SVG Version: 6.00 Build 0)  -->
<svg xmlns="http://www.w3.org/2000/svg" xmlns:xlink="http://www.w3.org/1999/xlink" width="250px" height="250px" viewBox="0 0 250 250" version="1.1">
<g id="surface1">
<path style=" stroke:none;fill-rule:nonzero;fill:rgb(0%,0%,0%);fill-opacity:1;" d="M 250 125 C 250 194.035156 194.035156 250 125 250 C 55.964844 250 0 194.035156 0 125 C 0 55.964844 55.964844 0 125 0 C 194.035156 0 250 55.964844 250 125 Z M 250 125 "/>
<path style=" stroke:none;fill-rule:nonzero;fill:rgb(100%,100%,100%);fill-opacity:1;" d="M 177.734375 51.757812 L 163.085938 56.835938 L 168.554688 73.4375 L 125 50.976562 L 66.210938 83.203125 L 66.210938 126.757812 L 89.84375 118.554688 L 89.648438 96.679688 L 125 77.929688 L 158.789062 94.335938 L 141.992188 100.585938 L 147.265625 115.820312 L 193.945312 99.21875 Z M 177.734375 51.757812 "/>
<path style=" stroke:none;fill-rule:nonzero;fill:rgb(100%,100%,100%);fill-opacity:1;" d="M 72.265625 198.242188 L 86.914062 193.164062 L 81.445312 176.5625 L 124.804688 199.023438 L 183.789062 166.796875 L 183.789062 123.242188 L 160.15625 131.445312 L 160.351562 153.320312 L 124.804688 172.070312 L 91.210938 155.664062 L 108.007812 149.414062 L 102.734375 134.179688 L 56.054688 150.78125 Z M 72.265625 198.242188 "/>
<path style=" stroke:none;fill-rule:nonzero;fill:rgb(100%,100%,100%);fill-opacity:1;" d="M 129.492188 238.671875 L 129.101562 228.710938 C 141.210938 228.320312 152.734375 225.78125 163.867188 221.289062 L 167.578125 230.46875 C 155.46875 235.351562 142.578125 238.085938 129.492188 238.671875 Z M 90.820312 233.59375 C 78.320312 229.6875 66.601562 223.632812 56.25 215.625 L 62.304688 207.617188 C 71.875 214.84375 82.421875 220.3125 93.945312 224.023438 Z M 200.78125 209.960938 L 194.140625 202.539062 C 203.125 194.53125 210.546875 185.15625 216.210938 174.609375 L 225 179.296875 C 218.75 190.820312 210.546875 201.171875 200.78125 209.960938 Z M 29.6875 186.914062 C 22.460938 175.976562 17.382812 163.867188 14.257812 150.976562 L 24.023438 148.632812 C 26.757812 160.351562 31.445312 171.289062 38.085938 181.445312 Z M 237.5 142.382812 L 227.539062 140.820312 C 228.320312 135.546875 228.710938 130.273438 228.710938 125 C 228.710938 118.359375 228.125 111.71875 226.757812 105.273438 L 236.523438 103.320312 C 237.890625 110.351562 238.671875 117.773438 238.671875 125 C 238.671875 130.859375 238.28125 136.523438 237.5 142.382812 Z M 21.875 113.28125 L 11.914062 112.109375 C 13.476562 99.023438 16.992188 86.523438 22.851562 74.609375 L 31.835938 79.101562 C 26.5625 89.84375 23.242188 101.367188 21.875 113.28125 Z M 214.257812 71.875 C 208.203125 61.523438 200.390625 52.539062 191.015625 44.921875 L 197.460938 37.304688 C 207.617188 45.703125 216.210938 55.664062 222.851562 66.992188 Z M 52.929688 50.390625 L 45.898438 43.164062 C 55.273438 33.984375 66.210938 26.5625 78.125 21.289062 L 82.226562 30.46875 C 71.484375 35.351562 61.523438 41.992188 52.929688 50.390625 Z M 160.15625 27.34375 C 149.023438 23.242188 137.109375 21.289062 125 21.289062 C 122.265625 21.289062 119.53125 21.484375 116.796875 21.679688 L 116.015625 11.71875 C 118.945312 11.523438 122.070312 11.328125 125 11.328125 C 138.28125 11.328125 151.171875 13.476562 163.476562 17.96875 Z M 160.15625 27.34375 "/>
</g>
</svg>
